X:1
T:Title
%%score { ( 1 3 ) | ( 2 4 ) }
L:1/8
M:4/4
K:Ab
V:1 treble nm="Grand Piano"
V:3 treble 
V:2 bass 
V:4 bass 
V:1
 z4 z2[Q:1/4=100] [CE]2 | [CE]2 [CA][DB] [Ec]2 [Ec]2 | [Fd]3 [Ec] [Ec]2 [EA]2 | %3
 [EB]2 [EB]2 [=Dc]3 [DB] |[M:3/4] B6 |[M:1/4] E2 |[M:4/4] [CE]2 [CA][DB] [Ec]2 [Ec]2 | %7
 [Fd]3 [Ec] [Ec]2 [CEA]2 | z4 z2 .B2 |[M:3/4] G6 |[M:1/4] F>E |[M:4/4] E6 z2 | F6 z2 | %13
 [CEA]2 [B,DG]A c3 B |[M:3/4] [CA]6 |] %15
V:2
 z4 z2 [A,,A,]2 | [A,,A,]2 [A,,A,]2 [A,,A,]2 [A,,A,]2 | [A,,A,]3 [A,,A,] [A,,A,]2 [C,A,]2 | %3
 [E,G,]2 [E,G,]2 [B,,A,]3 [B,,A,] |[M:3/4] E4 z2 |[M:1/4] [E,G,D]2 | %6
[M:4/4] [A,,A,]2 [A,,A,]2 [A,,A,]2 [A,,A,]2 | [A,,A,]3 [A,,A,] [A,,A,]2 A,,2 | %8
 D,2 [B,,B,]2 [C,=A,]2 D,=D, |[M:3/4] [E,B,E]6 |[M:1/4] D>D |[M:4/4] C6 z2 | D6 z2 | %13
 E,2 z [A,C] [E,G,E]3 [E,G,D] |[M:3/4] [A,,A,]6 |] %15
V:3
 x8 | x8 | x8 | x8 |[M:3/4] z2 z2 D2 |[M:1/4] x2 |[M:4/4] x8 | x8 | %8
 [B,FB]2 [Fd]2 [Fc]2 [B,F]-[B,FA] |[M:3/4] x6 |[M:1/4] x2 |[M:4/4] z2 A,>A, A,2 A>G | %12
 z2 A,>A, A,2 [DFB]2 | x8 |[M:3/4] x6 |] %15
V:4
 x8 | x8 | x8 | x8 |[M:3/4] [E,G,]6 |[M:1/4] x2 |[M:4/4] x8 | x8 | x8 |[M:3/4] x6 |[M:1/4] x2 | %11
[M:4/4] z2 A,,>A,, A,,2 C>E | z2 D,>D, D,2 B,,2 | z2 E,2 z4 |[M:3/4] x6 |] %15

